X: 07069
T: LOVELL'S HORNPIPE
C: Bob McQuillen 13 Feb 89
B: Bob's Note Book 7 #69
%R: hornpipe, reel
Z: 2020 John Chambers <jc:trillian.mit.edu>
M: C
L: 1/8
K: D
de \
| fage fdBd | ABAG FDFA | GFED FAdB | Adfd e2de |
| fage fdBd | ABAG FDFA | GABd cdeg | f2d2 d2 :|
|: de \
| fafd BAde | fdBd A2de | fdBd AdBg | fafd e2de |
| fafd BAde | fdBd Adfa | bagf gecd | e2d2 d2 :|
%%begintext align
%% Kathy Lovell is the other
%% half of that great teaam of Lovell and Asch which
%% takes such good care of us at the Brattleboro
%% Dawn Dances - Thanks a lot, Kathy; you and Tony
%% to good work!
%%endtext

%%sep 1 1 500

%%sep 1 1 500

